dist/svg/u1F9C4.svg

<?xml version="1.0" encoding="UTF-8"?><svg id="Layer_1" xmlns="http://www.w3.org/2000/svg" viewBox="0 0 40 40"><g><path d="M16.9051,5.32117s-2.52535,4.50041-5.05166,6.44783c-2.5263,1.94742,2.02992,2.50615,2.02992,2.50615l3.59105-1.0539,.27323-8.07987-.84255,.17979Z" style="fill:#c7b08b;"/><path d="M23.04821,5.32117s2.52535,4.50041,5.05166,6.44783c2.5263,1.94742-2.02992,2.50615-2.02992,2.50615l-3.59105-1.0539-.27323-8.07987,.84255,.17979Z" style="fill:#c7b08b;"/><g><g><path d="M19.2594,26.81721c0-5.01033,3.70298-18.16861,3.70298-18.16861,0,0,14.07133,6.75512,14.07133,15.82771,0,5.01033-3.97922,9.98598-8.88715,9.98598s-8.88715-2.63474-8.88715-7.64508Z" style="fill:#c7b08b;"/><path d="M20.7406,26.81721c0-5.01033-3.70298-18.16861-3.70298-18.16861,0,0-14.07133,6.75512-14.07133,15.82771,0,5.01033,3.97922,9.98598,8.88715,9.98598s8.88715-2.63474,8.88715-7.64508Z" style="fill:#c7b08b;"/></g><path d="M23.0949,9.32015v-3.99898c0-1.27665-1.04453-2.32117-2.32117-2.32117h-1.54745c-1.27665,0-2.32117,1.04453-2.32117,2.32117v3.99898c0,3.03734-.70527,4.83803-2.07032,7.55135-2.13435,4.24248-4.11948,7.51968-4.11948,11.81365,0,5.12747,1.3948,8.31485,9.28469,8.31485,7.90063,0,9.28469-3.18738,9.28469-8.31485,0-4.29397-1.98513-7.57116-4.11948-11.81365-1.36504-2.71332-2.07032-4.51401-2.07032-7.55135Z" style="fill:#e0c9a6;"/></g></g><rect y="0" width="40" height="40" style="fill:none;"/></svg>

<svg id="Layer_1" data-name="Layer 1" xmlns="http://www.w3.org/2000/svg" viewBox="0 0 40 40"><defs><style>.cls-1{fill:#c7b08b;}.cls-2{fill:#e0c9a6;}.cls-3{fill:none;}</style></defs><path class="cls-1" d="M16.905,5.321s-2.525,4.5-5.052,6.448,2.03,2.506,2.03,2.506l3.591-1.054.274-8.08Z"/><path class="cls-1" d="M23.048,5.321s2.526,4.5,5.052,6.448-2.03,2.506-2.03,2.506l-3.591-1.054-.273-8.08Z"/><path class="cls-1" d="M19.259,26.817c0-5.01,3.7-18.168,3.7-18.168S37.034,15.4,37.034,24.476c0,5.011-3.98,9.986-8.887,9.986S19.259,31.828,19.259,26.817Z"/><path class="cls-1" d="M20.741,26.817c0-5.01-3.7-18.168-3.7-18.168S2.966,15.4,2.966,24.476c0,5.011,3.98,9.986,8.887,9.986S20.741,31.828,20.741,26.817Z"/><path class="cls-2" d="M23.1,9.32v-4A2.329,2.329,0,0,0,20.774,3H19.226a2.329,2.329,0,0,0-2.321,2.321v4a14.837,14.837,0,0,1-2.07,7.551c-2.135,4.243-4.12,7.52-4.12,11.814C10.715,33.813,12.11,37,20,37s9.285-3.187,9.285-8.315c0-4.294-1.985-7.571-4.12-11.814A14.837,14.837,0,0,1,23.1,9.32Z"/><rect class="cls-3" width="40" height="40"/></svg>
